www/assets/icons/nearby_off.svg

<svg width="24" height="24" viewBox="0 0 24 24" xmlns="http://www.w3.org/2000/svg" fill='currentColor'><path d="M21.7137 13.1176L19.1337 15.6976L17.3237 13.8876L19.5037 11.6976L12.3037 4.49764L10.1137 6.68764L8.30373 4.86764L10.8837 2.28764C11.6637 1.50764 12.9337 1.50764 13.7137 2.28764L21.7137 10.2876C22.5037 11.0676 22.5037 12.3276 21.7137 13.1176ZM21.4937 20.8876L20.0837 22.2976L16.3037 18.5276L13.7237 21.1076C12.9437 21.8876 11.6737 21.8876 10.8937 21.1076L2.89373 13.1076C2.11373 12.3276 2.11373 11.0576 2.89373 10.2776L5.47373 7.69764L1.69373 3.91764L3.10373 2.50764L21.4937 20.8876ZM14.4937 16.7176L13.1037 15.3276L12.3037 16.1276L7.88373 11.6976L8.68373 10.8976L7.28373 9.50764L5.10373 11.6976L12.3037 18.8976L14.4937 16.7176ZM16.7237 11.6976L12.3037 7.27764L11.5037 8.07764L15.9237 12.4976L16.7237 11.6976Z"/></svg>

<svg xmlns="http://www.w3.org/2000/svg" width="24" height="24" viewBox="0 0 24 24" fill='currentColor'><path d="m21.714 13.118-2.58 2.58-1.81-1.81 2.18-2.19-7.2-7.2-2.19 2.19-1.81-1.82 2.58-2.58c.78-.78 2.05-.78 2.83 0l8 8c.79.78.79 2.04 0 2.83m-.22 7.77-1.41 1.41-3.78-3.77-2.58 2.58c-.78.78-2.05.78-2.83 0l-8-8c-.78-.78-.78-2.05 0-2.83l2.58-2.58-3.78-3.78 1.41-1.41zm-7-4.17-1.39-1.39-.8.8-4.42-4.43.8-.8-1.4-1.39-2.18 2.19 7.2 7.2zm2.23-5.02-4.42-4.42-.8.8 4.42 4.42z"/></svg>
